X:1
T:Adagio
T:Adagio
T:Adagio
T:Arrangement of the "Adagio per il Organo" (H. 352) for Flute, Oboe and Cello 
T:Carl Philipp Emanuel Bach (1714-1788)
T:Arrangement by Felix Scharpf
T:twoflutes 2020 / Felix Scharpf / https://commons.wikimedia.org/wiki/File:Caspar_David_Friedrich_068.jpg
T:twoflutes 2020 / Felix Scharpf / https://commons.wikimedia.org/wiki/File:Caspar_David_Friedrich_068.jpg
T:twoflutes 2020 / Felix Scharpf / https://commons.wikimedia.org/wiki/File:Caspar_David_Friedrich_068.jpg
T:twoflutes 2020 / Felix Scharpf / https://commons.wikimedia.org/wiki/File:Caspar_David_Friedrich_068.jpg
C:Carl Philipp Emanuel Bach (1714-1788)
Z:twoflutes 2020 / Felix Scharpf / https://commons.wikimedia.org/wiki/File:Caspar_David_Friedrich_068.jpg
%%score [ 1 2 3 ]
L:1/8
Q:1/4=56
M:3/4
K:F
V:1 treble nm="Flöte" snm="Fl."
V:2 treble nm="Oboe " snm="Ob. "
V:3 bass nm="Violoncello" snm="Vc."
V:1
 z6 | z6 | z6 | z6 | z2!mp! A2 B2- | B2 (AG) A2- | A2 D2 G2- | GF E(B AG) | %8
 (G/F/E/D/) z2 z/!p! (f/g/a/) |"_cresc." (a/g/f/g/) g4- | g(c ef)!mp! a2- | %11
 aa (g/^f/e/d/) a/(c/B/A/) | B2 z2!mf! d2 |"_dim." d4- d/(=B/A/^G/) | A2 z4 | %15
 z!mp! d (d/c/)(c/=B/) c2 | z/ (A/=B/c/) (c/B/)(B/A/) B2- | (BA) (A2 P^G2) | %18
!>(! A>F (F/E/)(E/D/) (D/C/)(C/=B,/)!>)! | C!p!e"_cresc." (ef) f2- | f^f (fg) g2- | g>a g2 (P^f2 | %22
 g2) z B (B3/2c/4_d/4) | (_dc) z2 z/ (c/=d/_e/) | (_e/d/c/B/) A(G/d/) (d/c/)(c/B/) | %25
 A!mp!(a f^c) e(d | d6-) | d2 z2!p! E2- | E/(G/A/B/) B (A2 PG) | F2 z2 z2 | z d g(=B ^cd) | %31
 e2 z (^c de) | A2!mp! (f2- f/"_cresc."a/g/f/) | (f/e/^d/e/) (e2- e/g/f/e/) | %34
 (e/d/^c/d/) (d2- d/f/e/d/) | ^cd- d/(b/g/e/) (dPc) | d2!p! a2 b2- | b2 (ag) a2- | %38
 a2"_dim." d2 g2- | gf e(b a!mp!g) |!>(! (f>[Q:1/4=45]g)[Q:1/4=40] (f2 Pe2)!>)! | %41
!p![Q:1/4=56] d4 z2 |] %42
V:2
 z2!mp! A2 B2- | B2 AG A2- | A2 D2 G2- | GF E(B AG) | (G/F/E/D/)!mp! (f2- f/a/g/f/) | %5
 (f/e/^d/e/) (e2- e/g/f/e/) | (e/d/^c/d/) (d2- d/f/e/d/) | ^cd- d/(b/g/e/) (dPc) | d2 (fA cB) | %9
 z/!p! B/"_cresc."(a/g/ f/e/d/c/) (cPB) | A2 z2 z/!mp! (c/d/_e/) | (_e/d/^c/d/) d4- | %12
 d!mf!(d ^fg) (ba |"_dim." ^g)=b (a/g/^f/e/) b/(d/c/=B/) | c!mp!e (c'=b ag/f/ | %15
 e/d/c/=B/) g2- g/(c/d/e/) | f4- f/(=B/c/d/) | e3/2(g/4f/4 e) d2 (c/=B/) | %18
!>(! e(f/d/) (d/c/)(c/=B/) (B/A/)(A/^G/)!>)! | A2"_cresc." z!p! c (c3/2d/4_e/4) | %20
 (_ed) z2 z/ (d/e/f/) | (f/_e/d/c/) B(A/e/) (e/d/)(d/c/) | (Bd) (d_e) e2- | e=e (ef) f2- | %24
 f>g (f2 Pe2) | f2 z2 z2 | z!mp! (b gd) f(e | e3/2)g/4f/4 (e2 Pd2) | ^c2 z2 e2- | eA d(^F GA) | %30
 B2 z2 z2 | z2 z!p! (B/A/) (A/G/)(G/F/) | (F2!p! A2) B2- | B2 (AG) A2- | A2 D2 G2- | GF (EB) (AG) | %36
 (G/4F/4E/D)!mf! (f2- f/a/g/f/) | (f/e/^d/e/) (e2- e/g/f/e/) | (e/d/^c/d/)"_dim." (d2- d/f/e/d/) | %39
 ^cd- d/(b/g/e/) (d!mp!Pc) |!>(! (d>e) (d2 P^c2)!>)! |!p! d4 z2 |] %42
V:3
!p! D,4 G,,2 | C,4 F,,2 | B,,4 (B,2 | A,2 G,2 A,2) | D,4 G,,2 | C,4 F,,2 | B,,4 (B,2 | %7
 A,2 G,2 A,2) | D,4 D,2 | (E,2 C,2) E,2 | F,4 F,2 | ^F,2 D,2 F,2 |!mp! G,4 (G,F,) | E,4 (^G,E,) | %14
 A,2 E,2 F,2- | F,2 (E,D,) E,2- | E,2 A,,2 D,2- | D,C, =B,,(F, E,D,) |!>(! (C,D,) E,2 E,,2!>)! | %19
 A,,4!p! A,,2 | B,,4 =B,,2 | (C,2 D,2) D,2 | G,,4 G,,2 | _A,,4 =A,,2 | (B,,2 C,2) C,2 | F,,4 F,,2 | %26
 G,,4 G,,2 | ^G,,2 G,,2 (G,,2 | A,,2) ^C,2 (C,2 | D,2) z!mp! (C B,A,) | G,2 z (F, E,D,) | %31
 (^C,E,) A,(B,, =B,,C,) |!p! D,4 G,,2 | C,4 F,,2 | B,,4 (B,2 | A,2 G,2 A,2) | D,4 G,,2 | C,4 F,,2 | %38
 B,,4"_dim." (B,2 | A,2 G,2!mp! A,2) |!>(! (B,G,) A,2 A,,2!>)! |!pp! D,4 z2 |] %42

